X: 1
T:Drowsy Maggie
M:C|
L:1/8
C:Traditional
R:Reel
K:Edor
|:"Em"E2BE dEBE|E2BE "D"AFDF|"Em"E2BE dEBE|BABc "D"dAFD |
"Em"E2BE dEBE|E2BE "D"AFDF|"Em"E2BE dEBE|1BABc "D"dAFD:|2"Em"BABc "D"dAFA||
"D"d2fd "A"c2ec|"D"defg "A"afge|"D"d2fd "A"c2ec|"G"BABc "A"dAFD |
"D"d2fd "A"c2ec|"D"defg "A"afge|"D"afge "A"fded|"G"BABc "D"dAFD|
"Bm"(3dcB fB (3dcB fB|"A"(3cBA eA fA eA|"Bm"(3dcB fB (3dcB fB|"D"fef^g "A"aecA|
"Bm"(3dcB fB (3dcB fB|"A"(3cBA eA fA eA|"D"defd  "A"cdec|"G"BABc "D"dAFD|]
